images/telega-picture-gray.svg

<svg width="100" height="108" viewBox="0 0 100 108" fill="none" xmlns="http://www.w3.org/2000/svg">
<path fill-rule="evenodd" clip-rule="evenodd" d="M29.089 91.9823C37.3236 97.5616 47.5924 98.7417 59.8955 95.5231C72.2328 92.2956 80.6257 86.2334 85.0731 77.3365C89.5457 68.3953 89.9258 56.8274 86.2126 42.634C82.5086 28.4753 76.5531 18.6595 68.3463 13.1863C60.1391 7.71304 49.8496 6.59471 37.4779 9.83125C25.1402 13.0589 16.7339 19.0682 12.2586 27.8592C7.81787 36.6412 7.44944 48.1114 11.1535 62.27C11.2498 62.6382 11.3476 63.0033 11.4469 63.3657C12.0985 65.7422 14.8603 66.7326 16.9476 65.4229L25.6707 59.9508C27.4412 58.8405 27.985 56.5101 26.8891 54.7305L19.3404 42.4731C17.5392 39.2474 16.7439 36.4186 16.9547 33.9869C17.1999 31.5461 18.3455 29.662 20.3915 28.3346C22.4721 26.9981 25.0605 26.5473 28.1568 26.9821L72.5799 32.9591C75.3979 33.3158 77.3173 34.5302 78.3381 36.602C79.3841 38.6295 79.3017 40.9899 78.0918 43.683L59.2385 85.6227C58.3698 87.5097 57.0579 88.7583 55.3028 89.3685C53.5821 89.9693 51.8332 89.8988 50.0557 89.1568C48.2783 88.4147 46.8737 87.1977 45.8419 85.5058L38.1964 73.091C37.0876 71.2908 34.7238 70.7389 32.9326 71.8626L21.9016 78.7824C20.1285 79.8947 19.5704 82.2439 20.82 83.9232C23.262 87.2044 26.0183 89.891 29.089 91.9823Z" fill="#E6EEFF" fill-opacity="0.6"/>
</svg>

<svg width="100" height="108" fill="none" xmlns="http://www.w3.org/2000/svg"><path fill-rule="evenodd" clip-rule="evenodd" d="M29.089 91.982c8.235 5.58 18.503 6.76 30.806 3.541 12.338-3.227 20.73-9.29 25.178-18.186 4.473-8.942 4.853-20.51 1.14-34.703-3.704-14.159-9.66-23.974-17.867-29.448C60.14 7.713 49.85 6.595 37.478 9.831 25.14 13.06 16.734 19.068 12.258 27.86c-4.44 8.782-4.809 20.252-1.104 34.411.096.368.194.733.293 1.096.652 2.376 3.413 3.367 5.5 2.057l8.724-5.472a3.806 3.806 0 001.218-5.22l-7.549-12.26c-1.8-3.226-2.596-6.054-2.385-8.486.245-2.44 1.39-4.325 3.437-5.652 2.08-1.337 4.669-1.788 7.765-1.353L72.58 32.96c2.818.357 4.737 1.571 5.758 3.643 1.046 2.028.964 4.388-.246 7.081l-18.853 41.94c-.87 1.887-2.181 3.135-3.936 3.745-1.72.601-3.47.53-5.247-.211-1.778-.742-3.182-1.96-4.214-3.651L38.196 73.09a3.807 3.807 0 00-5.263-1.228l-11.031 6.92c-1.774 1.112-2.332 3.46-1.082 5.14 2.442 3.281 5.198 5.968 8.269 8.06z" fill="#E6EEFF" fill-opacity=".6"/></svg>
